z_dist/img/icons/crypto/dai-DAI.svg

<svg width="64" height="64" viewBox="0 0 64 64" fill="none" xmlns="http://www.w3.org/2000/svg">
<rect width="64" height="64" rx="4" fill="#F5AC37"/>
<path fill-rule="evenodd" clip-rule="evenodd" d="M16.7604 49.6402V49.7597L16.7546 49.764V49.7842H30.6349C32.2059 49.8058 33.7712 49.6805 35.3149 49.404C36.9407 49.0858 38.5247 48.5847 40.0353 47.905C40.6903 47.6016 41.3187 47.235 41.9527 46.8651C42.1132 46.7714 42.2741 46.6776 42.4358 46.5845C43.1817 46.0531 43.896 45.4771 44.5757 44.8651C46.4362 43.1832 47.8762 41.0851 48.7762 38.745C48.8367 38.483 49.093 38.3145 49.3565 38.3649H53.1366C53.4375 38.3649 53.5369 38.2641 53.5369 37.9242V35.5036C53.557 35.2717 53.557 35.037 53.5369 34.8052C53.5369 34.7446 53.5525 34.6842 53.568 34.6238C53.599 34.5035 53.6299 34.3836 53.5369 34.2637H50.3789C49.9973 34.2637 49.9973 34.2234 49.9973 33.8836C50.1068 32.6653 50.1068 31.4427 49.9973 30.2245C49.9772 29.8645 50.0578 29.8645 50.3372 29.8645H53.0977C53.4188 29.8645 53.5383 29.7838 53.5383 29.4642V26.1838C53.5284 25.9665 53.5233 25.8564 53.4657 25.8005C53.4065 25.7432 53.2916 25.7432 53.0588 25.7432H49.4789C49.1996 25.7907 48.9317 25.602 48.8813 25.3227C48.4709 24.2499 47.9482 23.2231 47.3189 22.2626C46.6853 21.3151 45.971 20.4252 45.179 19.6029C44.1264 18.5517 42.9441 17.6388 41.6596 16.8827C39.7228 15.7581 37.6046 14.9704 35.3999 14.5629C34.33 14.3656 33.2485 14.2461 32.1599 14.2029H17.1607C16.7604 14.2029 16.7604 14.2835 16.7604 14.6032V25.3832C16.7604 25.7633 16.6797 25.7633 16.3802 25.7633H12.0803C11.7606 25.7633 11.7606 25.8224 11.7606 26.0427V29.5621C11.7606 29.8818 11.86 29.8818 12.1005 29.8818H16.4407C16.7604 29.8818 16.7604 29.9408 16.7604 30.1813V33.9412C16.7604 34.281 16.6595 34.281 16.4003 34.281H11.7606V38.0812C11.7606 38.4009 11.86 38.4009 12.1005 38.4009H16.4407C16.7604 38.4009 16.7604 38.4398 16.7604 38.7004V43.4006V44.9803V49.6402ZM44.3813 25.4206C44.4158 25.5099 44.4158 25.6092 44.3813 25.7H44.4778C44.4374 25.8195 44.2373 25.8598 44.2373 25.8598H21.1582C20.778 25.8598 20.778 25.7792 20.778 25.4796V18.3804C20.778 18.1197 20.8183 18.0002 21.1178 18.0002H31.8575C33.0008 17.9901 34.1413 18.1096 35.2573 18.3602C37.4692 18.8844 39.527 19.9269 41.2579 21.4001C41.6035 21.6578 41.9116 21.9617 42.178 22.3001C42.7425 22.8602 43.2379 23.4838 43.6584 24.1606C43.9377 24.5566 44.1782 24.9785 44.3813 25.4206ZM45.3389 34.2594H33.1794H21.259C21.0158 34.2594 20.8959 34.2594 20.8368 34.1995C20.7794 34.1413 20.7794 34.0264 20.7794 33.8V30.2403C20.7794 29.9595 20.8601 29.8602 21.1596 29.8602H45.359C45.6197 29.8602 45.7392 29.9595 45.7392 30.2C45.8386 31.4384 45.8386 32.6826 45.7392 33.9196C45.7205 34.2594 45.5981 34.2594 45.3389 34.2594ZM44.3813 38.4196C44.0414 38.3822 43.6987 38.3822 43.3589 38.4196H21.1798C20.8802 38.4196 20.7794 38.4196 20.7794 38.8199V45.7608C20.7794 46.0805 20.7794 46.1611 21.1798 46.1611H31.4197C31.9093 46.1986 32.3989 46.164 32.8784 46.0618C34.3645 45.9552 35.8261 45.6326 37.2201 45.1013C37.727 44.9256 38.2166 44.6966 38.6788 44.4216H38.8185C41.219 43.1731 43.1688 41.2118 44.3986 38.8041C44.3986 38.8041 44.5382 38.5017 44.3813 38.4225V38.4196Z" fill="#FEFEFD"/>
</svg>

<svg width="64" height="64" fill="none" xmlns="http://www.w3.org/2000/svg"><rect width="64" height="64" rx="4" fill="#F5AC37"/><path fill-rule="evenodd" clip-rule="evenodd" d="M16.76 49.64v.12l-.005.004v.02h13.88a24.607 24.607 0 004.68-.38c1.626-.318 3.21-.82 4.72-1.499.655-.303 1.284-.67 1.918-1.04.16-.094.321-.187.483-.28a24.103 24.103 0 002.14-1.72c1.86-1.682 3.3-3.78 4.2-6.12a.5.5 0 01.58-.38h3.78c.301 0 .4-.1.4-.44v-2.421a3.886 3.886 0 000-.699c0-.06.017-.12.032-.181.031-.12.062-.24-.031-.36h-3.158c-.382 0-.382-.04-.382-.38.11-1.219.11-2.441 0-3.66-.02-.36.06-.36.34-.36h2.76c.322 0 .441-.08.441-.4v-3.28c-.01-.218-.015-.328-.072-.384-.06-.057-.174-.057-.407-.057h-3.58a.52.52 0 01-.598-.42 16.04 16.04 0 00-1.562-3.06 19.277 19.277 0 00-2.14-2.66 17.643 17.643 0 00-3.52-2.72 19.55 19.55 0 00-6.26-2.32 22.85 22.85 0 00-3.24-.36H17.162c-.4 0-.4.08-.4.4v10.78c0 .38-.081.38-.38.38h-4.3c-.32 0-.32.06-.32.28v3.52c0 .319.099.319.34.319h4.34c.32 0 .32.059.32.3v3.76c0 .339-.101.339-.36.339h-4.64v3.8c0 .32.099.32.34.32h4.34c.32 0 .32.039.32.3V49.64zm27.621-24.22a.39.39 0 010 .28h.097c-.04.12-.24.16-.24.16h-23.08c-.38 0-.38-.08-.38-.38v-7.1c0-.26.04-.38.34-.38h10.74c1.143-.01 2.283.11 3.4.36a14.376 14.376 0 016 3.04c.345.258.654.562.92.9.565.56 1.06 1.184 1.48 1.86.28.397.52.819.723 1.26zm.958 8.84h-24.08c-.243 0-.363 0-.422-.06-.058-.059-.058-.174-.058-.4v-3.56c0-.28.081-.38.38-.38h24.2c.26 0 .38.1.38.34.1 1.238.1 2.483 0 3.72-.018.34-.14.34-.4.34zm-.958 4.16a4.672 4.672 0 00-1.022 0h-22.18c-.299 0-.4 0-.4.4v6.94c0 .32 0 .401.4.401h10.24c.49.038.98.003 1.46-.1a15.248 15.248 0 004.341-.96 7.948 7.948 0 001.459-.68h.14c2.4-1.248 4.35-3.21 5.58-5.617 0 0 .14-.302-.018-.382v-.002z" fill="#FEFEFD"/></svg>
